X: 41128
T: Trip To The Rosses
R: reel
M: 4/4
K: Edorian
|:EBBA B2AG|FAdc dAFD|EBBA B2AG|FBAF FEDF|
EBBA BBAG|FAdc dAFA|B~e3 d2AF|1 DFAF FEDF:|2 DFAF F~E3||
Beed efg2|a~f3 edef|edBA B/c/d Ad|fbaf ~e4|
g~B3 efgb|a~f3 e2fe|edBA B/c/d Ad|BdAF ~E4|
Beed efgb|a~f3 edef|edBA B/c/d Ad|fbaf e2de/f/|
g~B3 efg2|a~f3 edef|edBA B/c/d Ad|BdAF FEDF||

